!!!!SEGMENT: pl-kk--kk-i-502--003_anonim--fiant-domine.krn
!!!id: 18xx:1344
!!!COM: Anonim
!!!COM-rism: pe30004985
!!!CDT:
!!!CNT:
!!!OTL: Fiant Domine
!!!PDT:
!!!SMS-siglum: PL-Kk
!!!SMS-shelfmark: Kk.I.502
!!!NIFC-rismID: 1001137572
!!!URL-scan: http://repozytorium.nifc.pl/skany/pl-kk-nut--i-502
!!!ONB-nifc:
!!!SMS-variant:
!!!SMS-altvar:
**kern	**kern	**text
*part2	*part1	*part1
*staff2	*staff1	*staff1
*clefF4	*clefG2	*
*k[b-e-]	*k[b-e-]	*
*M2/1	*M2/1	*
=1	=1	=1
0ryy	1b-	Fi-
.	1b-	-ant
=2-	=2-	=2-
0ryy	1a	Do-
.	1b-	.
=3-	=3-	=3-
0ryy	1cc	.
.	1b-	-mi-
=4-	=4-	=4-
0ryy	1a	-ne
.	1a	.
!!LO:LB:g=original
=5||-	=5||	=5||
*	*^	*
!	!LO:TX:b:t=P:problem:tekst słowny w źródle pod dolną pięciolinią [nie wyświetla się ze względu na pauzy]	!	!
!LO:N:vis=4:xstem	!	!LO:N:vis=4:xstem	!
1B- 1BB-	1dd	1f 1d	O-
!LO:N:vis=4:xstem	!	!LO:N:vis=4:xstem	!
1A 1AA	1cc	1f#X 1d	-cu-
=6-	=6-	=6-	=6-
1ryy	1cc	1ryy	-li
!LO:N:vis=4:xstem	!	!LO:N:vis=4:xstem	!
1G 1GG	1b-	1g 1d	tu-
=7-	=7-	=7-	=7-
!LO:N:vis=4:xstem	!LO:TX:t=P:problem:znak oddechu na 5 linii dopisany ołówkiem:global	!LO:N:vis=4:xstem	!
1D-	1a,	1f#X 1d	-i
!LO:N:vis=4:xstem	!	!LO:N:vis=4:xstem	!
1BB-X	1dd	1fn 1d	in-
=8-	=8-	=8-	=8-
!LO:N:vis=4:xstem	!	!LO:N:vis=4:xstem	!
1Dny	1cc	1a 1f#X 1d	-ten-
!LO:N:vis=4:xstem	!	!LO:N:vis=4:xstem	!
1C#X	1b-	1g 1en	-den-
=9-	=9-	=9-	=9-
!LO:N:vis=4:xstem	!	!LO:N:vis=4:xstem	!
1D	1a,	1f#X	-tes
!LO:N:vis=4:xstem	!	!LO:N:vis=4:xstem	!
1B-X 1BB-X	1dd	1fn 1d	su-
=10-	=10-	=10-	=10-
!	!	!LO:N:vis=4:xstem	!
1ryy	1dd	1a	-per
!LO:N:vis=4:xstem	!	!LO:N:vis=4:xstem	!
1F#X	1cc	1a 1d	re-
=11-	=11-	=11-	=11-
!LO:N:vis=4:xstem	!	!LO:N:vis=4:xstem	!
1G	1b-	1g 1d	-gnam
!LO:N:vis=4:xstem	!	!LO:N:vis=4:xstem	!
1D	1a	1f#X 1d 1c	i-
=12-	=12-	=12-	=12-
!LO:N:vis=4:xstem	!	!LO:N:vis=4:xstem	!
1G 1GG	1g,	1d 1B-	-stud
!LO:N:vis=4:xstem	!	!LO:N:vis=4:xstem	!
1Fn 1FFn	1cc	1a 1fny 1c	et
=13-	=13-	=13-	=13-
1ryy	1cc	1ryy	su-
!LO:N:vis=4:xstem	!	!LO:N:vis=4:xstem	!
1G 1GG	1cc	1b- 1e 1c	-per
=14-	=14-	=14-	=14-
0ryy	1cc	0ryy	pro-
.	1cc	.	-ce-
!!LO:LB:g=original
=15-	=15-	=15-	=15-
!LO:N:vis=4:xstem	!	!LO:N:vis=4:xstem	!
1A 1AA	1cc	1f 1c	-res
1ryy	1cc	1ryy	re-
=16	=16	=16	=16
1ryy	1cc	1ryy	-gni
!LO:N:vis=4:xstem	!	!LO:N:vis=4:xstem	!
1BB-	1b-X	1g 1d	.
=17-	=17-	=17-	=17-
!LO:N:vis=4:xstem	!	!LO:N:vis=4:xstem	!
1C	1a	1f 1c	is-
!LO:N:vis=4:xstem	!	!LO:N:vis=4:xstem	!
1B- 1C	1g	1e-	-ti-
=18-	=18-	=18-	=18-
!LO:N:vis=4:xstem	!	!	!
1A 1F	1f,	1ryy	-us
!LO:N:vis=4:xstem	!	!LO:N:vis=4:xstem	!
1A 1F	1cc	1f	Re-
=19-	=19-	=19-	=19-
0ryy	1cc	0ryy	-gi-
.	1cc	.	-o-
=20-	=20-	=20-	=20-
1ryy	1cc	1ryy	-nem
!LO:N:vis=4:xstem	!	!LO:N:vis=4:xstem	!
1B- 1BB-	1dd	1b- 1f	is-
=21-	=21-	=21-	=21-
!LO:N:vis=4:xstem	!	!LO:N:vis=4:xstem	!
1A 1F	1cc	1f	-ta-
1ryy	1cc	1ryy	-tu
=22-	=22-	=22-	=22-
0ryy	1cc	0ryy	et
.	1cc,	.	om-
=23-	=23-	=23-	=23-
!LO:N:vis=4:xstem	!	!LO:N:vis=4:xstem	!
1B- 1BB-	1dd	1b- 1f	-nem
!LO:N:vis=4:xstem	!	!LO:N:vis=4:xstem	!
1D	1cc	1a 1f#X	Chris-
=24-	=24-	=24-	=24-
!LO:N:vis=4:xstem	!	!LO:N:vis=4:xstem	!
1G 1C#X	1b-	1en	-tia-
!LO:N:vis=4:xstem	!	!LO:N:vis=4:xstem	!
1F#X 1D	1a,	1d	-num
!!LO:LB:g=original
=25-	=25-	=25-	=25-
!LO:N:vis=4:xstem	!	!LO:N:vis=4:xstem	!
1Fn 1FFn	1cc	1a 1fny	po-
!LO:N:vis=4:xstem	!	!LO:N:vis=4:xstem	!
1B-X 1BB-X	1dd	1b- 1fny	-pu-
=26-	=26-	=26-	=26-
!LO:N:vis=4:xstem	!	!LO:N:vis=4:xstem	!
1A 1F	1cc	1a 1f	-lum
1ryy	1cc	1ryy	ſa-
=27-	=27-	=27-	=27-
0ryy	1cc	0ryy	-pien-
.	1cc,	.	-ti-
=28-	=28-	=28-	=28-
!LO:N:vis=4:xstem	!	!LO:N:vis=4:xstem	!
1B- 1BB-	1dd	1b- 1f	-am
!LO:N:vis=4:xstem	!	!LO:N:vis=4:xstem	!
1A 1F	1cc	1f	Pa-
=29-	=29-	=29-	=29-
0ryy	1cc	0ryy	-cem
.	1cc	.	.
=30-	=30-	=30-	=30-
1ryy	1cc,	1ryy	.
!LO:N:vis=4:xstem	!	!LO:N:vis=4:xstem	!
1B- 1BB-	1dd	1b- 1f	cha-
=31-	=31-	=31-	=31-
!LO:N:vis=4:xstem	!	!LO:N:vis=4:xstem	!
1D	1cc	1a 1f#X	-ri-
!LO:N:vis=4:xstem	!	!LO:N:vis=4:xstem	!
1G 1C#X	1b-	1en	-ta-
=32-	=32-	=32-	=32-
!LO:N:vis=4:xstem	!	!LO:N:vis=4:xstem	!
1F#X 1D	1a,	1d	-tem
!LO:N:vis=4:xstem	!	!LO:N:vis=4:xstem	!
1Fn 1FFn	1cc	1a 1fn	et
=33-	=33-	=33-	=33-
!LO:N:vis=4:xstem	!	!LO:N:vis=4:xstem	!
1B-X 1BB-X	1dd	1b- 1f	om-
!LO:N:vis=4:xstem	!	!LO:N:vis=4:xstem	!
1A 1F	1cc	1f	-ni-
=34-	=34-	=34-	=34-
!LO:N:vis=4:xstem	!	!LO:N:vis=4:xstem	!
1A 1F	1cc,	1f	-a
!!LO:PB:g=original
!LO:N:vis=4:xstem	!	!LO:N:vis=4:xstem	!
1F 1FF	1cc	1a 1f	que
=35-	=35-	=35-	=35-
!LO:N:vis=4:xstem	!	!LO:N:vis=4:xstem	!
1B- 1BB-	1dd	1b- 1f	no-
!LO:N:vis=4:xstem	!	!LO:N:vis=4:xstem	!
1A 1F	1cc	1f	-bis
=36-	=36-	=36-	=36-
!LO:N:vis=4:xstem	!	!LO:N:vis=4:xstem	!
1A 1F	1cc	1f	no-
!LO:N:vis=4:xstem	!LO:N:vis=4:xstem	!LO:N:vis=4:xstem	!
1En	1b-X	1g 1d-X	-sti
=37-	=37-	=37-	=37-
!LO:N:vis=4:xstem	!	!LO:N:vis=4:xstem	!
1F	1a	1f 1c	es-
!LO:N:vis=4:xstem	!	!LO:N:vis=4:xstem	!
1D	1b-	1f 1B-	-ſe
=38-	=38-	=38-	=38-
!LO:N:vis=4:xstem	!	!LO:N:vis=4:xstem	!
1AA	1cc	1f 1c	ne-
!LO:N:vis=4:xstem	!	!LO:N:vis=4:xstem	!
1BB-	1b-	1g 1dny	-ces-
=39-	=39-	=39-	=39-
!LO:N:vis=4:xstem	!	!LO:N:vis=4:xstem	!
1Cny	1a	1f 1c	-ſa-
!LO:N:vis=4:xstem	!	!LO:N:vis=4:xstem	!
1B- 1C	1g	1e	-ri-
*	*v	*v	*
=40-	=40-	=40-
!LO:N:vis=4:xstem	!	!
1A 1F	1f	-a
1ryy	1f	.
=41!|:	=41!|:	=41!|:
*^	*^	*
!LO:N:vis=4:xstem	!	!	!LO:N:vis=4:xstem	!
1A	1F	1cc	1f	Cle-
!LO:N:vis=4:xstem	!	!	!	!
1B-	1ryy	1dd	1ryy	-mens
*v	*v	*	*	*
=42-	=42-	=42-	=42-
!LO:N:vis=4	!	!	!
1A	1cc	1ryy	et
!LO:N:vis=4:xstem	!LO:N:vis=4:xstem	!LO:N:vis=4:xstem	!
1Bn	1dd	1a-X	pro-
=43-	=43-	=43-	=43-
!LO:N:vis=4:xstem	!LO:N:vis=4:xstem	!LO:N:vis=4:xstem	!
1c	1ee-X,	1an	-pi-
!LO:N:vis=4:xstem	!	!LO:N:vis=4:xstem	!
1B-y 1BB-	1dd	1b-y 1f	-ti-
=44-	=44-	=44-	=44-
!LO:N:vis=4:xstem	!	!LO:N:vis=4:xstem	!
1D	1cc	1a 1f#X	-us
!!LO:LB:g=original
!LO:N:vis=4:xstem	!	!LO:N:vis=4:xstem	!
1G	1b-	1g 1d	tri-
=45-	=45-	=45-	=45-
!LO:N:vis=4:xstem	!	!LO:N:vis=4:xstem	!
1C#X	1b-	1g 1en	-bu-
!LO:N:vis=4:xstem	!	!LO:N:vis=4:xstem	!
1D	1a,	1f#X 1d	-e-
=46-	=46-	=46-	=46-
!LO:N:vis=4:xstem	!	!LO:N:vis=4:xstem	!
1B- 1BB-	1dd	1b- 1fn	.
1ryy	1dd	1ryy	.
=47-	=47-	=47-	=47-
1ryy	1dd	1ryy	.
!LO:N:vis=4:xstem	!	!LO:N:vis=4:xstem	!
1D 1DD	1cc	1a 1f#X 1d	-re
=48-	=48-	=48-	=48-
!LO:N:vis=4:xstem	!LO:TX:b:t=P:problem:tekst słowny "Bie-" lub "Die-"	!LO:N:vis=4:xstem	!
1C#X 1CC#X	1b-	1g 1en	Die-
!LO:N:vis=4:xstem	!	!LO:N:vis=4:xstem	!
1D 1DD	1a	1f# 1d 1c	-ne-
=49-	=49-	=49-	=49-
!LO:N:vis=4:xstem	!	!LO:N:vis=4:xstem	!
1G 1GG	1g	1d 1B-	-ris
*	*v	*v	*
=:|!	=:|!	=:|!
*-	*-	*-
!!!system-decoration: {s1,s2}
!!!ENC: Zofia Niedbalska
!!!END: 2021-01-04
!!!ENC: Andrzej Kubiczek
!!!END: 2020-12-31
